; generated by PrusaSlicer 2.7.1+MacOS-arm64 on 2024-02-29 at 17:19:24 UTC


;
;
; 

; external perimeters extrusion width = 0.45mm
; perimeters extrusion width = 0.45mm
; infill extrusion width = 0.45mm
; solid infill extrusion width = 0.45mm
; top infill extrusion width = 0.40mm
; support material extrusion width = 0.35mm
; first layer extrusion width = 0.42mm

M73 P0 R165
M73 Q0 S166
M201 X1000 Y1000 Z200 E5000 ; sets maximum accelerations, mm/sec^2
M203 X200 Y200 Z12 E120 ; sets maximum feedrates, mm / sec
M204 S1250 T1250 ; sets acceleration (S) and retract acceleration (R), mm/sec^2
M205 X8.00 Y8.00 Z0.40 E4.50 ; sets the jerk limits, mm/sec
M205 S0 T0 ; sets the minimum extruding and travel feed rate, mm/sec

; printing object box v3.stl id:0 copy 0
; stop printing object box v3.stl id:0 copy 0

;TYPE:Custom
M862.3 P "MK3S" ; printer model check
M862.1 P0.4 ; nozzle diameter check
M115 U3.13.2 ; tell printer latest fw version
G90 ; use absolute coordinates
M83 ; extruder relative mode
M104 S215 ; set extruder temp
M140 S60 ; set bed temp
M190 S60 ; wait for bed temp
M109 S215 ; wait for extruder temp
G28 W ; home all without mesh bed level
G80 X103.18 Y83.1804 W43.6391 H43.6391 ; mesh bed levelling

G1 Z0.2 F720
G1 Y-3 F1000 ; go outside print area
G92 E0
G1 X60 E9 F1000 ; intro line
G1 X100 E12.5 F1000 ; intro line

G92 E0
M221 S95

; Don't change E values below. Excessive value can damage the printer.
M907 E430 ; set extruder motor current
G21 ; set units to millimeters
G90 ; use absolute coordinates
M83 ; use relative distances for extrusion

M900 K0.05 ; Filament gcode LA 1.5
M900 K30 ; Filament gcode LA 1.0




M107
;LAYER_CHANGE
;Z:0.2
;HEIGHT:0.2
;BEFORE_LAYER_CHANGE
G92 E0.0
;0.2


G1 E-.8 F2100
G1 Z.2 F720
;AFTER_LAYER_CHANGE
;0.2
G1 X103.761 Y84.439 F10800
G1 Z.2 F720
G1 E.8 F2100
M204 S800
;TYPE:Skirt/Brim
;WIDTH:0.42
G1 F1200
G1 X104.806 Y83.563 E.04275
G1 X105.746 Y83.369 E.03009
G1 X144.254 Y83.369 E1.20739
G1 X145.561 Y83.761 E.04278
M73 Q0 S165
G1 X146.437 Y84.806 E.04275
G1 X146.631 Y85.746 E.03009
G1 X146.631 Y124.254 E1.20739
G1 X146.239 Y125.561 E.04278
G1 X145.194 Y126.437 E.04275
G1 X144.254 Y126.631 E.03009
G1 X105.746 Y126.631 E1.20739
G1 X104.439 Y126.239 E.04278
G1 X103.563 Y125.194 E.04275
G1 X103.369 Y124.254 E.03009
G1 X103.369 Y85.746 E1.20739
G1 X103.743 Y84.497 E.04088
M204 S1000
; printing object box v3.stl id:0 copy 0
;WIPE_START
G1 F8640
G1 X103.761 Y84.439 E-.01402
G1 X104.806 Y83.563 E-.31486
G1 X105.746 Y83.369 E-.22162
G1 X106.827 Y83.369 E-.2495
;WIPE_END
G1 Z.6 F720
G1 X115.207 Y88.27 F10800
G1 Z.2 F720
G1 E.8 F2100
M204 S800
;TYPE:Support material
G1 F1200
G1 X112.555 Y88.298 E.08316
G1 X112.081 Y88.394 E.01516
G1 X111.278 Y88.727 E.02726
G1 X110.558 Y89.271 E.02829
G1 X110.222 Y89.654 E.01597
G1 X109.783 Y90.422 E.02774
G1 X109.552 Y91.28 E.02786
G1 X109.52 Y118.949 E.86754
G1 X109.801 Y119.23 E.01246
G1 X140.199 Y119.23 E.95311
G1 X140.48 Y118.949 E.01246
M73 P0 R164
G1 X140.448 Y91.278 E.86761
G1 X140.217 Y90.422 E.0278
G1 X139.778 Y89.654 E.02774
G1 X139.442 Y89.271 E.01597
G1 X138.722 Y88.727 E.02829
G1 X137.919 Y88.394 E.02726
G1 X137.439 Y88.298 E.01535
G1 X134.793 Y88.27 E.08297
G1 X135.042 Y85.746 E.07952
G1 X144.254 Y85.746 E.28884
G1 X144.254 Y124.254 E1.20739
G1 X105.746 Y124.254 E1.20739
G1 X105.746 Y85.746 E1.20739
G1 X114.958 Y85.746 E.28884
G1 X115.201 Y88.214 E.07776
M204 S1000
;WIPE_START
G1 F8640
G1 X114.958 Y85.746 E-.57262
G1 X113.973 Y85.746 E-.22738
;WIPE_END
G1 Z.6 F720
G1 X143.854 Y124.084 F10800
G1 Z.2 F720
G1 E.8 F2100
M204 S800
G1 F1200
G1 X143.854 Y86.085 E1.19143
G1 X143.435 Y86.085 E.01314
G1 X143.435 Y123.915 E1.18613
G1 X143.016 Y123.915 E.01314
G1 X143.016 Y86.085 E1.18613
G1 X142.597 Y86.085 E.01314
G1 X142.597 Y123.915 E1.18613
G1 X142.178 Y123.915 E.01314
G1 X142.178 Y86.085 E1.18613
G1 X141.759 Y86.085 E.01314
G1 X141.759 Y123.915 E1.18613
G1 X141.34 Y123.915 E.01314
G1 X141.34 Y86.085 E1.18613
G1 X140.921 Y86.085 E.01314
G1 X140.921 Y123.915 E1.18613
G1 X140.502 Y123.915 E.01314
G1 X140.502 Y119.407 E.14135
G1 X140.339 Y119.569 E.00721
G1 X140.083 Y119.569 E.00803
G1 X140.083 Y123.915 E.13627
G1 X139.664 Y123.915 E.01314
G1 X139.664 Y119.569 E.13627
G1 X139.245 Y119.569 E.01314
G1 X139.245 Y123.915 E.13627
G1 X138.826 Y123.915 E.01314
G1 X138.826 Y119.569 E.13627
G1 X138.407 Y119.569 E.01314
G1 X138.407 Y123.915 E.13627
G1 X137.988 Y123.915 E.01314
G1 X137.988 Y119.569 E.13627
G1 X137.569 Y119.569 E.01314
G1 X137.569 Y123.915 E.13627
G1 X137.15 Y123.915 E.01314
G1 X137.15 Y119.569 E.13627
G1 X136.731 Y119.569 E.01314
G1 X136.731 Y123.915 E.13627
G1 X136.312 Y123.915 E.01314
G1 X136.312 Y119.569 E.13627
G1 X135.893 Y119.569 E.01314
G1 X135.893 Y123.915 E.13627
G1 X135.474 Y123.915 E.01314
G1 X135.474 Y119.569 E.13627
G1 X135.055 Y119.569 E.01314
G1 X135.055 Y123.915 E.13627
G1 X134.636 Y123.915 E.01314
G1 X134.636 Y119.569 E.13627
G1 X134.217 Y119.569 E.01314
G1 X134.217 Y123.915 E.13627
G1 X133.799 Y123.915 E.01311
G1 X133.799 Y119.569 E.13627
G1 X133.38 Y119.569 E.01314
G1 X133.38 Y123.915 E.13627
G1 X132.961 Y123.915 E.01314
G1 X132.961 Y119.569 E.13627
G1 X132.542 Y119.569 E.01314
G1 X132.542 Y123.915 E.13627
G1 X132.123 Y123.915 E.01314
G1 X132.123 Y119.569 E.13627
G1 X131.704 Y119.569 E.01314
G1 X131.704 Y123.915 E.13627
G1 X131.285 Y123.915 E.01314
G1 X131.285 Y119.569 E.13627
G1 X130.866 Y119.569 E.01314
G1 X130.866 Y123.915 E.13627
G1 X130.447 Y123.915 E.01314
G1 X130.447 Y119.569 E.13627
G1 X130.028 Y119.569 E.01314
G1 X130.028 Y123.915 E.13627
G1 X129.609 Y123.915 E.01314
G1 X129.609 Y119.569 E.13627
G1 X129.19 Y119.569 E.01314
G1 X129.19 Y123.915 E.13627
G1 X128.771 Y123.915 E.01314
G1 X128.771 Y119.569 E.13627
G1 X128.352 Y119.569 E.01314
G1 X128.352 Y123.915 E.13627
G1 X127.933 Y123.915 E.01314
G1 X127.933 Y119.569 E.13627
G1 X127.514 Y119.569 E.01314
G1 X127.514 Y123.915 E.13627
G1 X127.095 Y123.915 E.01314
G1 X127.095 Y119.569 E.13627
G1 X126.676 Y119.569 E.01314
G1 X126.676 Y123.915 E.13627
G1 X126.257 Y123.915 E.01314
G1 X126.257 Y119.569 E.13627
G1 X125.838 Y119.569 E.01314
G1 X125.838 Y123.915 E.13627
G1 X125.419 Y123.915 E.01314
G1 X125.419 Y119.569 E.13627
G1 X125 Y119.569 E.01314
G1 X125 Y123.915 E.13627
G1 X124.581 Y123.915 E.01314
G1 X124.581 Y119.569 E.13627
G1 X124.162 Y119.569 E.01314
G1 X124.162 Y123.915 E.13627
G1 X123.743 Y123.915 E.01314
G1 X123.743 Y119.569 E.13627
G1 X123.324 Y119.569 E.01314
G1 X123.324 Y123.915 E.13627
G1 X122.905 Y123.915 E.01314
G1 X122.905 Y119.569 E.13627
G1 X122.486 Y119.569 E.01314
G1 X122.486 Y123.915 E.13627
G1 X122.067 Y123.915 E.01314
G1 X122.067 Y119.569 E.13627
G1 X121.648 Y119.569 E.01314
G1 X121.648 Y123.915 E.13627
G1 X121.229 Y123.915 E.01314
G1 X121.229 Y119.569 E.13627
G1 X120.81 Y119.569 E.01314
G1 X120.81 Y123.915 E.13627
G1 X120.391 Y123.915 E.01314
G1 X120.391 Y119.569 E.13627
G1 X119.972 Y119.569 E.01314
G1 X119.972 Y123.915 E.13627
G1 X119.553 Y123.915 E.01314
G1 X119.553 Y119.569 E.13627
G1 X119.134 Y119.569 E.01314
G1 X119.134 Y123.915 E.13627
G1 X118.715 Y123.915 E.01314
G1 X118.715 Y119.569 E.13627
G1 X118.296 Y119.569 E.01314
G1 X118.296 Y123.915 E.13627
G1 X117.877 Y123.915 E.01314
G1 X117.877 Y119.569 E.13627
G1 X117.458 Y119.569 E.01314
G1 X117.458 Y123.915 E.13627
G1 X117.039 Y123.915 E.01314
G1 X117.039 Y119.569 E.13627
G1 X116.62 Y119.569 E.01314
G1 X116.62 Y123.915 E.13627
G1 X116.201 Y123.915 E.01314
G1 X116.201 Y119.569 E.13627
G1 X115.783 Y119.569 E.01311
G1 X115.783 Y123.915 E.13627
G1 X115.364 Y123.915 E.01314
G1 X115.364 Y119.569 E.13627
G1 X114.945 Y119.569 E.01314
G1 X114.945 Y123.915 E.13627
G1 X114.526 Y123.915 E.01314
G1 X114.526 Y119.569 E.13627
G1 X114.107 Y119.569 E.01314
G1 X114.107 Y123.915 E.13627
G1 X113.688 Y123.915 E.01314
G1 X113.688 Y119.569 E.13627
G1 X113.269 Y119.569 E.01314
G1 X113.269 Y123.915 E.13627
G1 X112.85 Y123.915 E.01314
G1 X112.85 Y119.569 E.13627
G1 X112.431 Y119.569 E.01314
G1 X112.431 Y123.915 E.13627
G1 X112.012 Y123.915 E.01314
G1 X112.012 Y119.569 E.13627
G1 X111.593 Y119.569 E.01314
G1 X111.593 Y123.915 E.13627
G1 X111.174 Y123.915 E.01314
G1 X111.174 Y119.569 E.13627
G1 X110.755 Y119.569 E.01314
G1 X110.755 Y123.915 E.13627
G1 X110.336 Y123.915 E.01314
G1 X110.336 Y119.569 E.13627
G1 X109.917 Y119.569 E.01314
G1 X109.917 Y123.915 E.13627
G1 X109.498 Y123.915 E.01314
G1 X109.498 Y119.407 E.14135
G1 X109.181 Y119.089 E.01408
G1 X109.181 Y91.737 E.8576
G1 X109.3 Y90.808 E.02937
G1 X109.498 Y90.231 E.01913
G1 X109.498 Y86.085 E.12999
G1 X109.917 Y86.085 E.01314
G1 X109.917 Y89.501 E.10711
G1 X110.336 Y89.015 E.02012
G1 X110.336 Y86.085 E.09187
G1 X110.755 Y86.085 E.01314
G1 X110.755 Y88.664 E.08086
G1 X111.174 Y88.399 E.01554
G1 X111.174 Y86.085 E.07255
G1 X111.593 Y86.085 E.01314
G1 X111.593 Y88.201 E.06635
G1 X112.012 Y88.061 E.01385
G1 X112.012 Y86.085 E.06196
G1 X112.431 Y86.085 E.01314
G1 X112.431 Y87.976 E.05929
G1 X112.85 Y87.939 E.01319
G1 X112.85 Y86.085 E.05813
G1 X113.269 Y86.085 E.01314
G1 X113.269 Y87.931 E.05788
G1 X113.688 Y87.931 E.01314
G1 X113.688 Y86.085 E.05788
G1 X114.107 Y86.085 E.01314
G1 X114.107 Y87.931 E.05788
G1 X114.526 Y87.931 E.01314
G1 X114.526 Y85.916 E.06318
M204 S1000
;WIPE_START
G1 F8640
G1 X114.526 Y87.931 E-.46527
G1 X114.107 Y87.931 E-.09675
G1 X114.107 Y86.901 E-.23798
;WIPE_END
G1 Z.6 F720
G1 X140.502 Y90.733 F10800
G1 Z.2 F720
G1 E.8 F2100
M204 S800
G1 F1200
G1 X140.502 Y86.085 E.14573
G1 X140.083 Y86.085 E.01314
G1 X140.083 Y89.501 E.10711
G1 X139.664 Y89.015 E.02012
G1 X139.664 Y86.085 E.09187
G1 X139.245 Y86.085 E.01314
G1 X139.245 Y88.664 E.08086
G1 X138.826 Y88.399 E.01554
M73 Q0 S164
G1 X138.826 Y86.085 E.07255
G1 X138.407 Y86.085 E.01314
G1 X138.407 Y88.201 E.06635
G1 X137.988 Y88.061 E.01385
G1 X137.988 Y86.085 E.06196
G1 X137.569 Y86.085 E.01314
G1 X137.569 Y87.976 E.05929
G1 X137.15 Y87.939 E.01319
G1 X137.15 Y86.085 E.05813
G1 X136.731 Y86.085 E.01314
G1 X136.731 Y87.931 E.05788
G1 X136.312 Y87.931 E.01314
G1 X136.312 Y86.085 E.05788
G1 X135.893 Y86.085 E.01314
G1 X135.893 Y87.931 E.05788
G1 X135.474 Y87.931 E.01314
G1 X135.474 Y85.916 E.06318
M204 S1000
;WIPE_START
G1 F8640
G1 X135.474 Y87.931 E-.46527
G1 X135.893 Y87.931 E-.09675
G1 X135.893 Y86.901 E-.23798
;WIPE_END
G1 Z.6 F720
G1 X109.079 Y124.084 F10800
G1 Z.2 F720
G1 E.8 F2100
M204 S800
G1 F1200
G1 X109.079 Y86.085 E1.19143
G1 X108.66 Y86.085 E.01314
G1 X108.66 Y123.915 E1.18613
G1 X108.241 Y123.915 E.01314
G1 X108.241 Y86.085 E1.18613
G1 X107.822 Y86.085 E.01314
G1 X107.822 Y123.915 E1.18613
G1 X107.403 Y123.915 E.01314
G1 X107.403 Y86.085 E1.18613
M73 P0 R163
G1 X106.984 Y86.085 E.01314
G1 X106.984 Y123.915 E1.18613
G1 X106.565 Y123.915 E.01314
G1 X106.565 Y86.085 E1.18613
G1 X106.146 Y86.085 E.01314
G1 X106.146 Y124.084 E1.19143
M204 S1000
;WIPE_START
G1 F8640
G1 X106.146 Y120.619 E-.8
;WIPE_END
G1 Z.6 F720
G1 X111.164 Y117.586 F10800
G1 Z.2 F720
G1 E.8 F2100
M204 S800
;TYPE:Perimeter
;WIDTH:0.419999
G1 F1200
G1 X111.164 Y91.819 E.8079
G1 X111.235 Y91.277 E.01714
G1 X111.418 Y90.836 E.01497
G1 X111.708 Y90.458 E.01494
G1 X112.086 Y90.168 E.01494
G1 X112.527 Y89.985 E.01497
G1 X113.069 Y89.914 E.01714
G1 X136.931 Y89.914 E.74817
G1 X137.473 Y89.985 E.01714
G1 X137.914 Y90.168 E.01497
G1 X138.292 Y90.458 E.01494
G1 X138.582 Y90.836 E.01494
G1 X138.765 Y91.277 E.01497
G1 X138.836 Y91.952 E.02128
G1 X138.836 Y117.586 E.80373
G1 X111.224 Y117.586 E.86575
M204 S1000
G1 X110.787 Y117.963 F10800
M204 S800
G1 F1200
G1 X110.787 Y91.794 E.82051
G1 X110.868 Y91.178 E.01948
G1 X111.088 Y90.646 E.01805
G1 X111.439 Y90.189 E.01807
G1 X111.896 Y89.838 E.01807
G1 X112.428 Y89.618 E.01805
G1 X113.044 Y89.537 E.01948
G1 X136.956 Y89.537 E.74974
G1 X137.572 Y89.618 E.01948
G1 X138.104 Y89.838 E.01805
G1 X138.561 Y90.189 E.01807
G1 X138.912 Y90.646 E.01807
G1 X139.132 Y91.178 E.01805
G1 X139.213 Y91.952 E.0244
G1 X139.213 Y117.963 E.81556
G1 X110.847 Y117.963 E.88939
M204 S1000
G1 X110.41 Y118.34 F10800
M204 S800
;TYPE:External perimeter
G1 F1200
G1 X110.41 Y91.77 E.83308
G1 X110.5 Y91.08 E.02182
G1 X110.759 Y90.456 E.02118
G1 X111.17 Y89.92 E.02118
G1 X111.706 Y89.509 E.02118
G1 X112.33 Y89.25 E.02118
G1 X113.02 Y89.16 E.02182
G1 X136.98 Y89.16 E.75125
G1 X137.67 Y89.25 E.02182
M73 P1 R163
M73 Q1 S164
G1 X138.294 Y89.509 E.02118
G1 X138.83 Y89.92 E.02118
G1 X139.241 Y90.456 E.02118
G1 X139.5 Y91.08 E.02118
G1 X139.59 Y91.952 E.02749
G1 X139.59 Y118.34 E.82738
G1 X110.47 Y118.34 E.91304
M204 S1000
;WIPE_START
G1 F8640
G1 X110.41 Y118.34 E-.01385
G1 X110.41 Y114.935 E-.78615
;WIPE_END
G1 Z.6 F720
G1 X138.666 Y91.853 F10800
G1 Z.2 F720
G1 E.8 F2100
M204 S800
;TYPE:Solid infill
;WIDTH:0.422912
G1 F1200
G1 X137.09 Y90.277 E.07042
G1 X136.909 Y90.254 E.00576
G1 X136.529 Y90.254 E.01201
G1 X138.496 Y92.221 E.08789
G1 X138.496 Y92.758 E.01697
G1 X135.992 Y90.254 E.11189
G1 X135.454 Y90.254 E.017
G1 X138.496 Y93.296 E.13593
G1 X138.496 Y93.833 E.01697
G1 X134.917 Y90.254 E.15992
G1 X134.379 Y90.254 E.017
G1 X138.496 Y94.371 E.18396
G1 X138.496 Y94.908 E.01697
G1 X133.842 Y90.254 E.20796
G1 X133.305 Y90.254 E.01697
G1 X138.496 Y95.445 E.23196
G1 X138.496 Y95.983 E.017
G1 X132.767 Y90.254 E.256
G1 X132.23 Y90.254 E.01697
G1 X138.496 Y96.52 E.27999
G1 X138.496 Y97.058 E.017
G1 X131.693 Y90.254 E.30401
G1 X131.155 Y90.254 E.017
G1 X138.496 Y97.595 E.32803
G1 X138.496 Y98.132 E.01697
G1 X130.618 Y90.254 E.35202
G1 X130.08 Y90.254 E.017
G1 X138.496 Y98.67 E.37606
G1 X138.496 Y99.207 E.01697
G1 X129.543 Y90.254 E.40006
G1 X129.006 Y90.254 E.01697
G1 X138.496 Y99.744 E.42405
G1 X138.496 Y100.282 E.017
G1 X128.468 Y90.254 E.44809
G1 X127.931 Y90.254 E.01697
G1 X138.496 Y100.819 E.47209
G1 X138.496 Y101.357 E.017
G1 X127.393 Y90.254 E.49613
G1 X126.856 Y90.254 E.01697
G1 X138.496 Y101.894 E.52012
G1 X138.496 Y102.431 E.01697
G1 X126.319 Y90.254 E.54412
G1 X125.781 Y90.254 E.017
G1 X138.496 Y102.969 E.56816
G1 X138.496 Y103.506 E.01697
G1 X125.244 Y90.254 E.59215
G1 X124.706 Y90.254 E.017
G1 X138.496 Y104.044 E.61619
G1 X138.496 Y104.581 E.01697
G1 X124.169 Y90.254 E.64019
G1 X123.632 Y90.254 E.01697
G1 X138.496 Y105.118 E.66419
G1 X138.496 Y105.656 E.017
G1 X123.094 Y90.254 E.68823
G1 X122.557 Y90.254 E.01697
G1 X138.496 Y106.193 E.71222
G1 X138.496 Y106.731 E.017
G1 X122.02 Y90.254 E.73624
G1 X121.482 Y90.254 E.017
G1 X138.496 Y107.268 E.76026
G1 X138.496 Y107.805 E.01697
G1 X120.945 Y90.254 E.78425
G1 X120.407 Y90.254 E.017
G1 X138.496 Y108.343 E.80829
G1 X138.496 Y108.88 E.01697
G1 X119.87 Y90.254 E.83229
G1 X119.333 Y90.254 E.01697
M73 Q1 S163
G1 X138.496 Y109.417 E.85628
G1 X138.496 Y109.955 E.017
G1 X118.795 Y90.254 E.88032
G1 X118.258 Y90.254 E.01697
G1 X138.496 Y110.492 E.90432
G1 X138.496 Y111.03 E.017
G1 X117.72 Y90.254 E.92836
G1 X117.183 Y90.254 E.01697
G1 X138.496 Y111.567 E.95235
G1 X138.496 Y112.104 E.01697
G1 X116.646 Y90.254 E.97635
G1 X116.108 Y90.254 E.017
G1 X138.496 Y112.642 E1.00039
G1 X138.496 Y113.179 E.01697
M73 P1 R162
G1 X115.571 Y90.254 E1.02438
G1 X115.033 Y90.254 E.017
G1 X138.496 Y113.717 E1.04842
G1 X138.496 Y114.254 E.01697
G1 X114.496 Y90.254 E1.07242
G1 X113.959 Y90.254 E.01697
G1 X138.496 Y114.791 E1.09641
G1 X138.496 Y115.329 E.017
G1 X113.421 Y90.254 E1.12046
G1 X113.091 Y90.254 E.01043
G1 X112.908 Y90.278 E.00583
G1 X138.496 Y115.866 E1.14338
G1 X138.496 Y116.404 E.017
G1 X112.469 Y90.376 E1.16302
G1 X112.257 Y90.464 E.00725
G1 X112.123 Y90.567 E.00534
G1 X138.496 Y116.941 E1.17848
G1 X138.496 Y117.247 E.00967
G1 X138.265 Y117.247 E.0073
G1 X111.849 Y90.831 E1.18038
G1 X111.714 Y91.007 E.00701
G1 X111.648 Y91.167 E.00547
G1 X137.727 Y117.247 E1.16534
G1 X137.19 Y117.247 E.01697
G1 X111.536 Y91.593 E1.14633
G1 X111.504 Y91.841 E.0079
G1 X111.504 Y92.098 E.00812
G1 X136.653 Y117.247 E1.12376
G1 X136.115 Y117.247 E.017
G1 X111.504 Y92.635 E1.09974
G1 X111.504 Y93.172 E.01697
G1 X135.578 Y117.247 E1.07575
G1 X135.04 Y117.247 E.017
G1 X111.504 Y93.71 E1.05171
G1 X111.504 Y94.247 E.01697
G1 X134.503 Y117.247 E1.02771
G1 X133.966 Y117.247 E.01697
G1 X111.504 Y94.784 E1.00372
