; generated by PrusaSlicer 2.7.4+MacOS-arm64 on 2024-04-09 at 21:44:44 UTC


;
;
; 

; external perimeters extrusion width = 0.45mm
; perimeters extrusion width = 0.45mm
; infill extrusion width = 0.45mm
; solid infill extrusion width = 0.45mm
; top infill extrusion width = 0.40mm
; support material extrusion width = 0.35mm
; first layer extrusion width = 0.42mm

M73 P0 R14
M73 Q0 S14
M201 X1000 Y1000 Z200 E5000 ; sets maximum accelerations, mm/sec^2
M203 X200 Y200 Z12 E120 ; sets maximum feedrates, mm / sec
M204 S1250 T1250 ; sets acceleration (S) and retract acceleration (R), mm/sec^2
M205 X8.00 Y8.00 Z0.40 E4.50 ; sets the jerk limits, mm/sec
M205 S0 T0 ; sets the minimum extruding and travel feed rate, mm/sec

; printing object y connector v1.stl id:0 copy 0
; stop printing object y connector v1.stl id:0 copy 0

;TYPE:Custom
M862.3 P "MK3S" ; printer model check
M862.1 P0.4 ; nozzle diameter check
M115 U3.13.2 ; tell printer latest fw version
G90 ; use absolute coordinates
M83 ; extruder relative mode
M104 S215 ; set extruder temp
M140 S60 ; set bed temp
M190 S60 ; wait for bed temp
M109 S215 ; wait for extruder temp
G28 W ; home all without mesh bed level
G80 X104.616 Y80.9431 W42.1228 H45.796 ; mesh bed levelling

G1 Z0.2 F720
G1 Y-3 F1000 ; go outside print area
G92 E0
G1 X60 E9 F1000 ; intro line
G1 X100 E12.5 F1000 ; intro line

G92 E0
M221 S95

; Don't change E values below. Excessive value can damage the printer.

M907 E538 ; set extruder motor current
G21 ; set units to millimeters
G90 ; use absolute coordinates
M83 ; use relative distances for extrusion

M900 K0.05 ; Filament gcode LA 1.5
M900 K30 ; Filament gcode LA 1.0




M107
;LAYER_CHANGE
;Z:0.2
;HEIGHT:0.2
G1 E-.8 F2100
G1 Z.6 F720
G1 X111.125 Y81.802 F10800
G1 Z.2 F720
G1 E.8 F2100
M204 S800
;TYPE:Skirt/Brim
;WIDTH:0.42
G1 F1200
G1 X112.78 Y81.132 E.05598
G1 X127.949 Y81.132 E.47561
G1 X129.256 Y81.523 E.04277
G1 X130.002 Y82.311 E.03402
G1 X146.227 Y110.125 E1.00962
G1 X146.551 Y111.322 E.03888
M73 P1 R14
M73 Q1 S14
G1 X146.551 Y119.22 E.24764
G1 X145.854 Y120.901 E.05706
G1 X140.901 Y125.854 E.21962
G1 X139.22 Y126.551 E.05706
G1 X129.005 Y126.551 E.32028
G1 X128.419 Y126.477 E.01852
G1 X110.194 Y121.842 E.58962
G1 X109.024 Y121.14 E.04278
G1 X108.581 Y120.441 E.02595
G1 X104.952 Y111.607 E.29944
G1 X104.803 Y110.336 E.04012
G1 X105.824 Y103.853 E.20578
G1 X110.459 Y82.993 E.67
G1 X111.096 Y81.854 E.04092
M204 S1000
;WIPE_START
G1 F8640
G1 X111.125 Y81.802 E-.01375
G1 X112.78 Y81.132 E-.41227
G1 X114.4 Y81.132 E-.37398
;WIPE_END
G1 Z.6 F720
; printing object y connector v1.stl id:0 copy 0
G1 X141.225 Y116.943 F10800
G1 Z.2 F720
G1 E.8 F2100
M204 S800
;TYPE:Support material interface
;WIDTH:0.35
G1 F1200
G1 X141.225 Y116.589 E.00904
G1 X141.052 Y116.589 E.00442
G1 X141.052 Y118.907 E.05919
G1 X140.534 Y118.907 E.01323
G1 X140.534 Y116.589 E.05919
G1 X140.016 Y116.589 E.01323
G1 X140.016 Y118.907 E.05919
G1 X139.499 Y118.907 E.0132
G1 X139.499 Y116.589 E.05919
G1 X139.135 Y116.589 E.00929
G1 X139.214 Y116.634 E.00232
G1 X139.303 Y116.967 E.0088
M204 S1000
G1 X139.303 Y116.967 F10800
G1 X139.251 Y117.072
M204 S800
G1 F1200
G1 X138.981 Y117.54 E.0138
G1 X138.907 Y121.225 E.09411
G1 X138.463 Y121.225 E.01134
G1 X138.463 Y118.437 E.07119
G1 X137.945 Y119.334 E.02645
G1 X137.945 Y121.225 E.04828
G1 X137.427 Y121.225 E.01323
G1 X137.427 Y120.231 E.02538
G1 X137.074 Y120.34 E.00943
G1 X136.91 Y120.245 E.00484
G1 X136.91 Y121.225 E.02502
G1 X136.589 Y121.225 E.0082
G1 X136.589 Y120.06 E.02975
G1 X136.772 Y120.166 E.0054
M204 S1000
;WIPE_START
G1 F8640
G1 X136.589 Y120.06 E-.04883
G1 X136.589 Y121.225 E-.269
G1 X136.91 Y121.225 E-.07412
G1 X136.91 Y120.245 E-.22628
G1 X137.074 Y120.34 E-.04376
G1 X137.427 Y120.231 E-.08531
G1 X137.427 Y120.459 E-.0527
;WIPE_END
G1 Z.6 F720
G1 X123.788 Y111.728 F10800
G1 Z.2 F720
G1 E.8 F2100
M204 S800
;TYPE:Support material
;WIDTH:0.42
G1 F1200
G1 X137.388 Y119.56 E.49207
G1 X137.126 Y119.944 E.01458
M73 P2 R14
M73 Q2 S14
G1 X136.22 Y119.421 E.0328
G1 X136.22 Y121.594 E.06813
G1 X139.276 Y121.594 E.09582
G1 X139.276 Y119.276 E.07268
G1 X140.834 Y119.276 E.04885
G1 X139.22 Y122.072 E.10122
G1 X139.22 Y124.173 E.06588
G1 X129.005 Y124.173 E.32028
G1 X129.005 Y121.856 E.07265
G1 X124.369 Y121.856 E.14536
G1 X124.369 Y119.538 E.07268
G1 X122.051 Y119.538 E.07268
G1 X122.051 Y117.22 E.07268
G1 X120.995 Y117.22 E.03311
G1 X120.995 Y119.538 E.07268
G1 X110.78 Y119.538 E.32028
G1 X110.78 Y116.958 E.08089
G1 X113.78 Y116.958 E.09406
G1 X113.78 Y114.427 E.07936
G1 X112.873 Y114.949 E.03281
G1 X112.617 Y114.576 E.01418
G1 X120.668 Y109.922 E.29158
G1 X123.739 Y111.7 E.11126
M204 S1000
G1 X138.826 Y124.004 F10800
M204 S800
G1 F1200
G1 X138.826 Y121.933 E.06493
G1 X138.407 Y121.933 E.01314
G1 X138.407 Y123.834 E.0596
G1 X137.988 Y123.834 E.01314
G1 X137.988 Y121.933 E.0596
G1 X137.569 Y121.933 E.01314
G1 X137.569 Y123.834 E.0596
G1 X137.15 Y123.834 E.01314
G1 X137.15 Y121.933 E.0596
G1 X136.731 Y121.933 E.01314
G1 X136.731 Y123.834 E.0596
G1 X136.312 Y123.834 E.01314
G1 X136.312 Y121.933 E.0596
G1 X135.893 Y121.933 E.01314
G1 X135.893 Y123.834 E.0596
G1 X135.474 Y123.834 E.01314
G1 X135.474 Y118.847 E.15636
G1 X135.055 Y118.605 E.01517
G1 X135.055 Y123.834 E.16395
G1 X134.636 Y123.834 E.01314
G1 X134.636 Y118.363 E.17154
G1 X134.217 Y118.121 E.01517
G1 X134.217 Y123.834 E.17913
G1 X133.799 Y123.834 E.01311
G1 X133.799 Y117.88 E.18668
G1 X133.38 Y117.638 E.01517
G1 X133.38 Y123.834 E.19427
G1 X132.961 Y123.834 E.01314
G1 X132.961 Y117.396 E.20186
G1 X132.542 Y117.154 E.01517
G1 X132.542 Y123.834 E.20945
G1 X132.123 Y123.834 E.01314
G1 X132.123 Y116.912 E.21703
G1 X131.704 Y116.67 E.01517
G1 X131.704 Y123.834 E.22462
G1 X131.285 Y123.834 E.01314
M73 Q3 S14
G1 X131.285 Y116.428 E.23221
M73 P3 R14
G1 X130.866 Y116.186 E.01517
G1 X130.866 Y123.834 E.2398
G1 X130.447 Y123.834 E.01314
G1 X130.447 Y115.944 E.24739
G1 X130.028 Y115.703 E.01516
G1 X130.028 Y123.834 E.25494
G1 X129.609 Y123.834 E.01314
G1 X129.609 Y115.461 E.26253
G1 X129.19 Y115.219 E.01517
G1 X129.19 Y121.516 E.19744
G1 X128.771 Y121.516 E.01314
G1 X128.771 Y114.977 E.20503
G1 X128.352 Y114.736 E.01516
G1 X128.352 Y121.516 E.21258
G1 X127.933 Y121.516 E.01314
G1 X127.933 Y114.495 E.22014
G1 X127.514 Y114.255 E.01514
G1 X127.514 Y121.516 E.22766
G1 X127.095 Y121.516 E.01314
G1 X127.095 Y114.015 E.23519
G1 X126.676 Y113.775 E.01514
G1 X126.676 Y121.516 E.24271
G1 X126.257 Y121.516 E.01314
G1 X126.257 Y113.535 E.25024
G1 X125.838 Y113.295 E.01514
G1 X125.838 Y121.516 E.25776
G1 X125.419 Y121.516 E.01314
G1 X125.419 Y113.054 E.26532
G1 X125 Y112.814 E.01514
G1 X125 Y121.516 E.27285
G1 X124.708 Y121.516 E.00916
G1 X124.708 Y119.198 E.07268
G1 X124.581 Y119.198 E.00398
G1 X124.581 Y112.574 E.20769
G1 X124.162 Y112.334 E.01514
G1 X124.162 Y119.198 E.21522
G1 X123.743 Y119.198 E.01314
G1 X123.743 Y112.094 E.22274
G1 X123.324 Y111.852 E.01517
G1 X123.324 Y119.198 E.23033
G1 X122.905 Y119.198 E.01314
G1 X122.905 Y111.609 E.23795
G1 X122.486 Y111.367 E.01517
G1 X122.486 Y119.198 E.24554
M73 Q4 S14
G1 X122.391 Y119.198 E.00298
M73 P4 R14
G1 X122.391 Y116.881 E.07265
G1 X122.067 Y116.881 E.01016
G1 X122.067 Y111.124 E.18051
G1 X121.648 Y110.882 E.01517
G1 X121.648 Y116.881 E.18809
G1 X121.229 Y116.881 E.01314
G1 X121.229 Y110.639 E.19571
G1 X120.81 Y110.397 E.01517
G1 X120.81 Y116.881 E.2033
G1 X120.656 Y116.881 E.00483
G1 X120.656 Y119.198 E.07265
G1 X120.391 Y119.198 E.00831
G1 X120.391 Y110.475 E.2735
G1 X119.972 Y110.717 E.01517
G1 X119.972 Y119.198 E.26592
G1 X119.553 Y119.198 E.01314
G1 X119.553 Y110.96 E.2583
G1 X119.134 Y111.202 E.01517
G1 X119.134 Y119.198 E.25071
G1 X118.715 Y119.198 E.01314
G1 X118.715 Y111.445 E.24309
G1 X118.296 Y111.688 E.01519
G1 X118.296 Y119.198 E.23547
G1 X117.877 Y119.198 E.01314
G1 X117.877 Y111.93 E.22788
G1 X117.458 Y112.173 E.01519
G1 X117.458 Y119.198 E.22026
G1 X117.039 Y119.198 E.01314
G1 X117.039 Y112.415 E.21268
G1 X116.62 Y112.658 E.01519
G1 X116.62 Y119.198 E.20506
G1 X116.201 Y119.198 E.01314
G1 X116.201 Y112.9 E.19747
G1 X115.783 Y113.143 E.01516
G1 X115.783 Y119.198 E.18985
G1 X115.364 Y119.198 E.01314
G1 X115.364 Y113.386 E.18223
G1 X114.945 Y113.628 E.01517
G1 X114.945 Y119.198 E.17464
G1 X114.526 Y119.198 E.01314
G1 X114.526 Y113.871 E.16702
G1 X114.119 Y114.104 E.0147
G1 X114.107 Y119.198 E.15972
G1 X113.688 Y119.198 E.01314
G1 X113.688 Y117.297 E.0596
G1 X113.269 Y117.297 E.01314
G1 X113.269 Y119.198 E.0596
G1 X112.85 Y119.198 E.01314
G1 X112.85 Y117.297 E.0596
G1 X112.431 Y117.297 E.01314
G1 X112.431 Y119.198 E.0596
G1 X112.012 Y119.198 E.01314
G1 X112.012 Y117.297 E.0596
G1 X111.593 Y117.297 E.01314
G1 X111.593 Y119.198 E.0596
G1 X111.174 Y119.198 E.01314
M73 Q5 S14
G1 X111.174 Y117.128 E.0649
M73 P5 R14
M204 S1000
;WIPE_START
G1 F8640
G1 X111.174 Y119.198 E-.47797
G1 X111.593 Y119.198 E-.09675
G1 X111.593 Y118.223 E-.22528
;WIPE_END
G1 Z.6 F720
G1 X140.083 Y120.237 F10800
G1 Z.2 F720
G1 E.8 F2100
M204 S800
G1 F1200
G1 X140.083 Y119.615 E.0195
G1 X139.664 Y119.615 E.01314
G1 X139.664 Y120.963 E.04227
M204 S1000
;WIPE_START
G1 F8640
G1 X139.664 Y119.615 E-.31126
G1 X140.083 Y119.615 E-.09675
G1 X140.083 Y120.237 E-.14362
;WIPE_END
G1 E-.24837 F2100
G1 Z.6 F720
G1 X127.949 Y104.369 F10800
G1 Z.2 F720
G1 E.8 F2100
M204 S800
G1 F1200
G1 X132.584 Y104.369 E.14533
G1 X132.584 Y106.687 E.07268
G1 X137.22 Y106.687 E.14536
G1 X137.22 Y109.005 E.07268
G1 X139.538 Y109.005 E.07268
G1 X139.538 Y111.322 E.07265
G1 X144.173 Y111.322 E.14533
G1 X144.173 Y119.22 E.24764
G1 X141.594 Y119.22 E.08086
G1 X141.594 Y116.22 E.09406
G1 X138.381 Y116.22 E.10074
G1 X138.298 Y116.531 E.01009
G1 X138.897 Y116.877 E.02169
G1 X138.701 Y117.286 E.01422
G1 X121.986 Y107.64 E.60509
G1 X121.972 Y88.341 E.60511
G1 X122.436 Y88.376 E.01459
G1 X122.436 Y89.144 E.02408
G1 X123.051 Y89.144 E.01928
G1 X123.051 Y86.089 E.09579
G1 X117.678 Y86.089 E.16847
G1 X117.678 Y89.144 E.09579
G1 X118.895 Y89.144 E.03816
G1 X118.895 Y88.376 E.02408
G1 X119.346 Y88.341 E.01418
G1 X119.351 Y107.64 E.60511
G1 X111.304 Y112.302 E.29159
G1 X111.102 Y111.882 E.01461
G1 X113.78 Y110.332 E.09702
G1 X113.78 Y109.267 E.03339
G1 X108.406 Y109.267 E.1685
G1 X108.406 Y112.322 E.09579
M73 P5 R13
G1 X111.268 Y112.322 E.08974
G1 X111.183 Y112.372 E.00309
G1 X111.081 Y112.755 E.01243
G1 X111.743 Y113.902 E.04152
M73 Q6 S14
G1 X110.724 Y113.902 E.03195
M73 P6 R13
G1 X110.724 Y115.332 E.04484
G1 X110.616 Y115.145 E.00677
G1 X109.947 Y115.532 E.02423
G1 X107.151 Y110.704 E.17493
G1 X108.144 Y110.129 E.03598
G1 X108.144 Y104.369 E.1806
G1 X112.78 Y104.369 E.14536
G1 X112.78 Y83.509 E.65405
G1 X127.949 Y83.509 E.47561
G1 X127.949 Y104.312 E.65226
M204 S1000
;WIPE_START
G1 F8640
G1 X127.949 Y100.847 E-.8
;WIPE_END
G1 Z.6 F720
G1 X143.435 Y119.05 F10800
G1 Z.2 F720
G1 E.8 F2100
M204 S800
G1 F1200
G1 X143.435 Y111.662 E.23165
G1 X143.016 Y111.662 E.01314
G1 X143.016 Y118.881 E.22635
G1 X142.597 Y118.881 E.01314
M73 Q6 S13
G1 X142.597 Y111.662 E.22635
G1 X142.178 Y111.662 E.01314
G1 X142.178 Y118.881 E.22635
G1 X141.933 Y118.881 E.00768
G1 X141.933 Y115.881 E.09406
G1 X141.759 Y115.881 E.00546
G1 X141.759 Y111.662 E.13228
G1 X141.34 Y111.662 E.01314
G1 X141.34 Y115.881 E.13228
G1 X140.921 Y115.881 E.01314
G1 X140.921 Y111.662 E.13228
G1 X140.502 Y111.662 E.01314
G1 X140.502 Y115.881 E.13228
G1 X140.083 Y115.881 E.01314
G1 X140.083 Y111.662 E.13228
G1 X139.664 Y111.662 E.01314
G1 X139.664 Y115.881 E.13228
G1 X139.245 Y115.881 E.01314
G1 X139.198 Y109.344 E.20497
G1 X138.826 Y109.344 E.01166
G1 X138.826 Y115.881 E.20496
G1 X138.407 Y115.881 E.01314
G1 X138.407 Y109.344 E.20496
G1 X137.988 Y109.344 E.01314
M73 P7 R13
G1 X137.963 Y116.468 E.22337
M73 Q7 S13
G1 X137.569 Y116.24 E.01427
G1 X137.569 Y109.344 E.21622
G1 X137.15 Y109.344 E.01314
G1 X137.15 Y115.999 E.20866
G1 X136.731 Y115.757 E.01517
G1 X136.731 Y107.026 E.27375
G1 X136.312 Y107.026 E.01314
G1 X136.312 Y115.515 E.26617
G1 X135.893 Y115.273 E.01517
G1 X135.893 Y107.026 E.25858
G1 X135.474 Y107.026 E.01314
G1 X135.474 Y115.031 E.25099
G1 X135.055 Y114.789 E.01517
G1 X135.055 Y107.026 E.2434
G1 X134.636 Y107.026 E.01314
G1 X134.636 Y114.547 E.23582
G1 X134.217 Y114.305 E.01517
G1 X134.217 Y107.026 E.22823
G1 X133.799 Y107.026 E.01311
G1 X133.799 Y114.063 E.22064
G1 X133.38 Y113.822 E.01516
G1 X133.38 Y107.026 E.21308
G1 X132.961 Y107.026 E.01314
G1 X132.961 Y113.58 E.2055
G1 X132.542 Y113.338 E.01517
G1 X132.542 Y107.026 E.19791
G1 X132.245 Y107.026 E.00931
G1 X132.245 Y104.708 E.07268
G1 X132.123 Y104.708 E.00383
G1 X132.123 Y113.096 E.263
G1 X131.704 Y112.854 E.01517
G1 X131.704 Y104.708 E.25541
G1 X131.285 Y104.708 E.01314
G1 X131.285 Y112.612 E.24782
G1 X130.866 Y112.37 E.01517
G1 X130.866 Y104.708 E.24024
G1 X130.447 Y104.708 E.01314
G1 X130.447 Y112.128 E.23265
G1 X130.028 Y111.886 E.01517
G1 X130.028 Y104.708 E.22506
G1 X129.609 Y104.708 E.01314
G1 X129.609 Y111.643 E.21744
G1 X129.19 Y111.399 E.0152
G1 X129.19 Y104.708 E.20979
G1 X128.771 Y104.708 E.01314
M73 P8 R13
M73 Q8 S13
G1 X128.771 Y111.156 E.20217
G1 X128.352 Y110.914 E.01517
G1 X128.352 Y104.708 E.19458
G1 X127.933 Y104.708 E.01314
G1 X127.933 Y110.673 E.18703
G1 X127.514 Y110.431 E.01517
G1 X127.514 Y83.848 E.83349
G1 X127.095 Y83.848 E.01314
G1 X127.095 Y110.19 E.82593
G1 X126.676 Y109.949 E.01516
G1 X126.676 Y83.848 E.81838
G1 X126.257 Y83.848 E.01314
G1 X126.257 Y109.708 E.81082
G1 X125.838 Y109.466 E.01517
G1 X125.838 Y83.848 E.80323
G1 X125.419 Y83.848 E.01314
G1 X125.419 Y109.225 E.79568
G1 X125 Y108.984 E.01516
M73 P9 R13
M73 Q9 S13
G1 X125 Y83.848 E.78812
G1 X124.581 Y83.848 E.01314
G1 X124.581 Y108.743 E.78057
G1 X124.162 Y108.502 E.01516
G1 X124.162 Y83.848 E.77301
G1 X123.743 Y83.848 E.01314
G1 X123.743 Y108.26 E.76542
G1 X123.324 Y108.019 E.01516
G1 X123.324 Y83.848 E.75786
G1 X122.905 Y83.848 E.01314
G1 X122.905 Y85.749 E.0596
G1 X122.486 Y85.749 E.01314
G1 X122.486 Y83.848 E.0596
G1 X122.067 Y83.848 E.01314
G1 X122.067 Y85.749 E.0596
G1 X121.648 Y85.749 E.01314
G1 X121.648 Y83.848 E.0596
G1 X121.229 Y83.848 E.01314
G1 X121.229 Y85.749 E.0596
G1 X120.81 Y85.749 E.01314
G1 X120.81 Y83.848 E.0596
G1 X120.391 Y83.848 E.01314
G1 X120.391 Y85.749 E.0596
G1 X119.972 Y85.749 E.01314
G1 X119.972 Y83.848 E.0596
G1 X119.553 Y83.848 E.01314
G1 X119.553 Y85.749 E.0596
G1 X119.134 Y85.749 E.01314
G1 X119.134 Y83.848 E.0596
G1 X118.715 Y83.848 E.01314
G1 X118.715 Y85.749 E.0596
G1 X118.296 Y85.749 E.01314
G1 X118.296 Y83.848 E.0596
G1 X117.877 Y83.848 E.01314
G1 X117.877 Y85.919 E.06493
M204 S1000
;WIPE_START
G1 F8640
G1 X117.877 Y83.848 E-.4782
G1 X118.296 Y83.848 E-.09675
G1 X118.296 Y84.823 E-.22505
;WIPE_END
G1 Z.6 F720
G1 X122.905 Y107.974 F10800
G1 Z.2 F720
M73 P10 R13
G1 E.8 F2100
M73 Q10 S13
M204 S800
G1 F1200
G1 X122.905 Y89.484 E.57974
G1 X122.486 Y89.484 E.01314
G1 X122.486 Y107.733 E.57218
M204 S1000
;WIPE_START
G1 F8640
G1 X122.486 Y104.268 E-.8
;WIPE_END
G1 Z.6 F720
G1 X118.715 Y107.81 F10800
G1 Z.2 F720
G1 E.8 F2100
M204 S800
G1 F1200
G1 X118.715 Y89.484 E.5746
G1 X118.296 Y89.484 E.01314
G1 X118.296 Y107.856 E.57604
G1 X117.877 Y108.097 E.01516
G1 X117.877 Y89.314 E.58893
M204 S1000
G1 X117.877 Y89.314 F10800
G1 X117.458 Y108.534
M204 S800
G1 F1200
G1 X117.458 Y83.848 E.77401
G1 X117.039 Y83.848 E.01314
G1 X117.039 Y108.579 E.77542
G1 X116.62 Y108.821 E.01517
G1 X116.62 Y83.848 E.78301
G1 X116.201 Y83.848 E.01314
M73 P11 R13
M73 Q11 S13
G1 X116.201 Y109.062 E.79057
G1 X115.783 Y109.305 E.01516
G1 X115.783 Y83.848 E.79819
G1 X115.364 Y83.848 E.01314
G1 X115.364 Y109.548 E.80581
G1 X114.945 Y109.792 E.0152
G1 X114.945 Y83.848 E.81346
G1 X114.526 Y83.848 E.01314
G1 X114.526 Y110.036 E.82111
G1 X114.119 Y110.272 E.01475
G1 X114.107 Y83.848 E.82851
G1 X113.688 Y83.848 E.01314
G1 X113.688 Y108.927 E.78633
G1 X113.269 Y108.927 E.01314
M73 P12 R13
M73 Q12 S13
G1 X113.269 Y83.848 E.78633
G1 X113.119 Y83.848 E.0047
G1 X113.119 Y104.708 E.65405
G1 X112.85 Y104.708 E.00843
G1 X112.85 Y108.927 E.13228
G1 X112.431 Y108.927 E.01314
G1 X112.431 Y104.708 E.13228
